X: 313
T: 6. La Mahoni
T: la Mahoni
B: Robert Landrin "Potpourri fran\,cois des contre-danse ancienne tel quil se danse chez la Reine ..." 1760 p.31 #3 dance 10 #6
S: http://memory.loc.gov/cgi-bin/query/D?musdibib:2:./temp/~ammem_EbRS:
Z: 2014 John Chambers <jc:trillian.mit.edu>
M: 2/2
L: 1/8
K: G
% - - - - - - - - - - - - - - - - - - - - - - - - -
!segno!GABc |\
d2g2 !+!f2e2 | d4 C2e2 | B,2d2 cBAG | !+!F2D2 GABc |\
d2g2 !+!f2e2 | d4 dcBA | cBAG BAGF | HG4 |]
"2.F."Adcd |\
Adcd Adcd | !+!B4 Bede | Bede Bede | !+!c4 eaga |\
eaga eaga | !+!f4 bagf | ed^cB AB^cA | d4 !segno!y|]
% - - - - - - - - - - - - - - - - - - - - - - - - -

%%sep 1 1 500
%%sep 1 1 500
